X:1
T:Recitatief en Aria uit "RINALDO"
T:Lascia Ch'io Pianga
T:HÄNDEL
%%score ( 1 2 ) { ( 3 5 ) | ( 4 6 ) }
L:1/8
M:4/4
K:A
V:1 treble nm="Voice"
V:2 treble 
V:3 bass nm="Piano"
V:5 bass 
V:4 bass 
V:6 bass 
V:1
"^Recitativ." z2 z E F E z E3/4 E/4 | B A z A/ A/ F2 B c | c ^E z ^E F ^E ^E F | %3
w: Ar- mi- da dis- pie-|ta- ta! col- la for- za d'a-|bi- so ra- pim- mi~al ca- ro|
w: Ar- mi- da, Mit leid-|lo- se! in den Ab- grund des|Jam- mers ver- san- ken e- wig|
 G z/ G/ A B B A z F | ^A z/ A/ B c c =E z2 | =G2 GF DD z F | =G G G B B F z2 | z4 z2 z d | %8
w: Ciel di miei con- ten- ti, e|qui con duo- lo~e- ter- no|vi- va mi tie- ni in|tor- men- to d'in- fer- no|Si-|
w: mir des Le- bens Freu- den, und|hier mit ew'- gen Qua- len|hält mich ge- fe- sselt die|grau- se Nacht der Höl- le|O|
 B2 z2 B2 =G F | ^E ^E z2 B2 B3/2 A/ | (^G3/2 F/) F2 z4 | z8 || %12
w: gnor! Ah per pie-|ta! * la- scia mi|pian- ge- re||
w: Herr! Ach hab Er-|bar- men und lass mich|wei- * nen||
[K:D][M:3/4]"^ARIE."[Q:1/4=60]"^Larghetto" F2 F2 z F | G2 G2 z2 | E2 A3 G | G2 F2 z2 | %16
w: La scia ch'io|pian- ga|la du- ra|sor- te,|
w: Lass mich mit|Thrä- nen|mein Loos be-|kla- gen|
 B2 B2 (3cde | A2 A2 z d | (F>E F2) (E>D) | D6 | F2 !^!d3 B | ^G2 G2 z2 | B2 e3 c | (A^G) A2 z (d | %24
w: e che- so- * *|spi- ri la|li- * * ber- *|tà,|e che so-|spi- ri,|e che so-|spi- * ri la|
w: Ket- ten zu * *|tra- gen welch|har- * * tes Ge-|schick,|Ket- ten zu|tra- gen,|Ket- ten zu|tra- * gen welch|
 (c>B c2) (B>A) | A6) |!p! F2 F2 z F | G2 G2 z2 | E2 A3 G | G2 F2 z2 | B2 B2 (3cde | A2 A2 z (d | %32
w: li- * * ber- *|tà;|la scia- ch'io|pian- ga|la du- ra|sor- te|e che so _ _|spi- ri la|
w: har- * tes Ge- *|schick|Lass mich mit|Thrä- nen|mein Loos be-|kla- gen,|Ket- ten zu _ _|tra- gen welch|
 (F>E !^!F2) (!^!E>D) | D6) | z6 | z6 | z6 | z6 | z6 | z6 | z6 | z6 |]!f! F2 B3 c | ^A2 F2 z2 | %44
w: li- * * ber- *|tà.|||||||||Il duil in-|fran- ge|
w: har- * tes Ge- *|schick.|||||||||Ach nur im|To- de|
 F2 B3 c | (dc) d2 z2 | (d2 (ed) (cB) | (e^G) A2) z G |!<(! (AB) B3 A/!<)!B/ | (c^E) !^!F4 | %50
w: ques- te ri-|tor- * te|de' miei * mar- *|ti- * ri sol|per * pie- * *|tà, * si,|
w: find ich Er-|bar- * men|er giebt * mir *|Ar- * men die|Ruh'- * zu- * *|rück, * ja,|
!f! (dc) (BA) (^GF) | c2 ^E2 z !^!B | (!^!A^G) (G3 F) | F4"^" z2!D.S.! |] %54
w: de' * miei * mar- *|ti- ri sol,|per * pie- *|tà.|
w: er * griebt * mir *|Ar- men die|Ruh' * zu- *|rück.|
V:2
 x8 | x8 | x8 | x8 | x8 | x8 | x8 | x8 | x8 | ^E2 z2 x4 | x8 | x8 ||[K:D][M:3/4] x6 | x6 | x6 | %15
 x6 | x6 | x6 | x6 | x6 | x6 | x6 | x6 | x6 | x6 | x6 | x6 | x6 | x6 | x6 | x6 | x6 | x6 | x6 | %34
 x6 | x6 | x6 | x6 | x6 | x6 | x6 | x6 |] x6 | x6 | x6 | x6 | x6 | x6 | x6 | x6 | x6 | x6 | x6 | %53
 x6 |] %54
V:3
 [A,C]8- | [A,C]8 | [B,C]8- | [B,C]2 z2 z2 [A,C]2 | [F,^A,C]4 z4 |!f! [F,CE]4 [F,B,D]2 z2 | %6
[K:treble] [B,E=G]2 z2 z2!f! [CF^A]2 | !>![DFB]8- | [DFB]2 z2 z4 | z2 [G,DE]2 z4 | %10
 z4 z2"^Andante" [G,C^E]2 | [A,CF]4 z4 ||[K:D][M:3/4]!p!"^" [DF]2 [DF]2 z [DF] | %13
 [B,DG]2 [B,DG]2 z2 | [CE]2 [CEA]3 [CEG] | (G2 F2) z2 | [DGB]2 [EGB]2 z2 | [CEA]2 [DFA]2 z [A,DF] | %18
 F>E F2 E>D | [A,D]6 | F2 d3 B | [B,D^G]2 [B,EG]2 z2 | [^GB]2 e3 c | [CEA]2 [DFA]2 z!f! [Fd] | %24
 (c>B c2) (B>A) | [CEA]6 |!p! [DF]2 [DF]2 z [DF] | [B,DG]2 [B,DG]2 z2 | [CE]2 [CEA]3 [CEG] | %29
 (G2 F2) z2 | [DGB]2 [EGB]2 z2 | [CEA]2 [DFA]2 z!mf! [A,DF] | F>E F2 E>D | [A,D]6 | %34
!f! [DF]2 [DF]2 z [DF] | [B,DG]2 [B,DG]2 z2 | [CE]2 [CEA]3 [CEG] | (G2 F2) z2 | %38
 [DGB]2 [EGB]2 (3cde | [CEA]2 [DFA]2 z!p! [Dd] | (F>E F2) (E>D) | !fermata!D6 |] %42
!f! [DF]2 [FB]3 [Gc] | [CF^A]2 [^A,CF]2 z2 | [DF]2 [DB]3 [EGc] | [DFd]2 [DFd]2 z2 | %46
!p! [B,E^G]4 [^G,B,E]2 | [^G,CE]2 [A,C]2 z2 | [DF]2 [DF]2 [B,E]2 | [CE][B,E] [A,F]2 z2 | %50
!f! [DF]2 [DF]2 z2 | [CFc]2 [B,C^E]2 z [C^GB] | [CFA][DF^G] [CG]4 | [A,F]2 z2"^" z2 |] %54
V:4
 [A,,E,]8- | [A,,E,]8 | (([G,,^E,]8 | [^E,,^E,]2)) z2 z2 [F,,F,]2 | !>![=E,,=E,]4 z4 | %5
 [^A,,,^A,,]4 [B,,,B,,]2 z2 | [E,,E,]2 z2 z2 [F,,F,]2 | !>![C,F,]8- | [C,F,]2 z2 z4 | %9
 z2 [B,,,B,,]2 z4 | z4 z2 [C,,C,]2 | [F,,,F,,]4 z4 ||[K:D][M:3/4] D,2 D,2 z D, | E,2 E,2 z2 | %14
 A,,2 A,,2 z A,, | D,2- D,C,B,,A,, | G,,2 G,2 z2 | G,2 F,2 z F, | G,2 A,2 G,>F, | [D,F,]6 | %20
 D,2"^cresc.       _        _        _        _        _        _       _        _        _        _" B,,3 D, | %21
 E,2 E,,2 z2 | x2 ^G,4 | F,2 D,2 z D, | E,2 E,,4 | A,,2!>(! A,=G,F,!>)!E, | D,2 D,2 z D, | %27
 E,2 E,2 z2 | A,,2 A,,3 A,, | D,2- D,C, B,,A,, | G,,2 G,2 z2 | G,2 F,2 z F, | G,2 A,2 G,>F, | %33
 [D,F,]6 | D,2 D,2 z D, | E,2 E,2 z2 | A,,2 A,,3 A,, | D,2- D,C,B,,A,, | G,,2 G,2 z2 | %39
 G,2 F,2 z [F,A,] | G,2 A,2 G,>F, | !fermata![D,F,]6 |] B,,2 D,3 E, | F,3 =G,F,E, | D,2 G,2 E,2 | %45
 B,2 B,,2 z2 | E,2 D,4 | C,2 F,2 z2 | D,2 B,,2 [E,^G,]2 | [A,,A,][C,^G,] [D,F,]2 z2 | B,,2 B,2 z2 | %51
 A,2 ^G,2 z ^E, | F,B,, C,2 C,,2 | F,,2!>(! A,=G,F,!>)!=E, |] %54
V:5
 x8 | x8 | x8 | x8 | x8 | x8 |[K:treble] x8 | x8 | x8 | x8 | x8 | x8 ||[K:D][M:3/4] x6 | x6 | x6 | %15
 [A,D]4 z2 | x6 | x6 | [B,D]2 D2 C2 | x6 | D2 D4 | x6 | z2 E4 | x6 | [EA]2 [EA]2 [DG]2 | x6 | x6 | %27
 x6 | x6 | [A,D]4 z2 | x6 | x6 | [B,D]2 D2 C2 | x6 | x6 | x6 | x6 | [A,D]4 z2 | x6 | x6 | %40
 [B,D]2 D2 C2 | x6 |] x6 | x6 | x6 | x6 | x6 | x6 | x6 | x6 | x6 | x6 | x2 F2 ^E2 | x6 |] %54
V:6
 x8 | x8 | x8 | x8 | x8 | x8 | x8 | x8 | x8 | x8 | x8 | x8 ||[K:D][M:3/4] x6 | x6 | x6 | x6 | x6 | %17
 x6 | x4 A,,2 | x6 | x6 | x6 | E,2 C,3 E, | x6 | x6 | x6 | x6 | x6 | x6 | x6 | x6 | x6 | x4 A,,2 | %33
 x6 | x6 | x6 | x6 | x6 | x6 | x6 | x4 A,,2 | x6 |] x6 | x6 | x6 | x6 | x6 | x6 | x6 | x6 | x6 | %51
 x6 | x6 | x6 |] %54

